svgs/sharp-solid/repeat.svg

<svg xmlns="http://www.w3.org/2000/svg" viewBox="0 0 512 512"><!--! Font Awesome Pro 6.6.0 by @fontawesome - https://fontawesome.com License - https://fontawesome.com/license (Commercial License) Copyright 2024 Fonticons, Inc. --><path d="M0 224L0 96 0 64l32 0 288 0 0-64 32 0 96 96-96 96-32 0 0-64L64 128l0 96 0 32L0 256l0-32zm512 64l0 128 0 32-32 0-288 0 0 64-32 0L64 416l96-96 32 0 0 64 256 0 0-96 0-32 64 0 0 32z"/></svg>

<svg xmlns="http://www.w3.org/2000/svg" viewBox="0 0 512 512"><!--! Font Awesome Pro 6.5.2 by @fontawesome - https://fontawesome.com License - https://fontawesome.com/license (Commercial License) Copyright 2024 Fonticons, Inc. --><path d="M0 224V96 64H32 320V0h32l96 96-96 96H320V128H64v96 32H0V224zm512 64V416v32H480 192v64H160L64 416l96-96h32v64H448V288 256h64v32z"/></svg>
